assets/svg/icon_field_phone.svg

<svg width="24" height="24" viewBox="0 0 24 24" fill="none" xmlns="http://www.w3.org/2000/svg">
<path d="M9.77565 5.5475C9.64372 5.23839 9.41605 4.9734 9.12201 4.7867C8.82796 4.6 8.48101 4.50014 8.12587 4.5H5.68054C5.2338 4.5 4.80535 4.66638 4.48946 4.96253C4.17356 5.25868 3.99609 5.66035 3.99609 6.07917C3.99609 13.4908 10.405 19.5 18.3116 19.5C18.7584 19.5 19.1868 19.3336 19.5027 19.0375C19.8186 18.7413 19.9961 18.3397 19.9961 17.9208V15.6283C19.9961 15.2953 19.8897 14.9698 19.6905 14.694C19.4914 14.4181 19.2086 14.2046 18.8788 14.0808L16.5357 13.2025C16.2381 13.0909 15.9139 13.0567 15.5974 13.1037C15.2808 13.1506 14.9837 13.2769 14.7374 13.4692L14.133 13.9425C13.792 14.2089 13.3571 14.3462 12.9137 14.3274C12.4703 14.3086 12.0504 14.1351 11.7365 13.8408L10.0334 12.2417C9.71978 11.9477 9.53467 11.5544 9.51444 11.139C9.49421 10.7237 9.64032 10.3162 9.92409 9.99667L10.4281 9.43C10.6336 9.19921 10.7688 8.92058 10.8192 8.62365C10.8696 8.32672 10.8333 8.02253 10.7143 7.74333L9.77565 5.5475Z" stroke="#494949" stroke-width="1.3" stroke-linecap="round" stroke-linejoin="round"/>
</svg>

<svg xmlns="http://www.w3.org/2000/svg" width="24" height="24" fill="none"><path stroke="#494949" stroke-linecap="round" stroke-linejoin="round" stroke-width="1.3" d="M9.776 5.548a1.7 1.7 0 0 0-.654-.761 1.86 1.86 0 0 0-.996-.287H5.68c-.447 0-.876.166-1.192.463a1.53 1.53 0 0 0-.493 1.116c0 7.412 6.409 13.421 14.316 13.421.446 0 .875-.166 1.19-.462a1.53 1.53 0 0 0 .494-1.117v-2.293c0-.333-.106-.658-.305-.934a1.76 1.76 0 0 0-.812-.613l-2.343-.878a1.9 1.9 0 0 0-.939-.1 1.84 1.84 0 0 0-.86.366l-.604.474a1.86 1.86 0 0 1-1.22.384 1.84 1.84 0 0 1-1.177-.486l-1.703-1.6a1.62 1.62 0 0 1-.519-1.102c-.02-.415.126-.823.41-1.142l.504-.567c.206-.23.34-.51.391-.806a1.57 1.57 0 0 0-.105-.88z"/></svg>
